assets/img/microillustration/organized.svg

<?xml version="1.0" encoding="UTF-8"?>
<svg viewBox="0 0 106 106" version="1.1" xmlns="http://www.w3.org/2000/svg" xmlns:xlink="http://www.w3.org/1999/xlink">
    <title>4. Elements_Microillustrations/Organized</title>
    <g id="4.-Elements_Microillustrations/Organized" stroke="none" stroke-width="1" fill="none" fill-rule="evenodd">
        <path d="M53.4993818,7 C68.6875267,7 81,19.3121965 81,34.5 C81,37.8774961 80.3911012,41.1127826 79.2770863,44.102079 C90.6701587,47.4791769 99,58.2433657 99,71 C99,86.4639453 86.7593319,99 71.6597628,99 C64.4457966,99 57.8846676,96.1385907 52.9991964,91.4635497 C58.340788,86.3532517 61.6792453,79.0758948 61.6792453,71 C61.6792453,67.564807 61.0752037,64.2740968 59.9699642,61.233195 C68.8909246,59.0832805 76.1166744,52.5825831 79.2770863,44.102079 C76.859174,43.3842347 74.3032816,43 71.6597628,43 C64.4457966,43 57.8846676,45.8614093 53.000148,50.5364503 C56.0690733,53.4730127 58.4768642,57.1251526 59.9699642,61.233195 C57.8945651,61.7349243 55.7279294,62 53.4993818,62 C50.9424087,62 48.4669752,61.6510378 46.1180983,60.998141 C47.6158103,56.9850539 49.9898411,53.4165821 53.000148,50.5364503 L53.000148,50.5364503 L52.6644432,50.2205202 C47.8158009,45.7328232 41.3890205,43 34.3390081,43 C32.0247018,43 29.7775846,43.294492 27.631427,43.8488812 C30.6347237,52.1616841 37.5306146,58.6111533 46.1180983,60.998141 C44.9565016,64.1033394 44.3207547,67.4756287 44.3207547,71 C44.3207547,78.9110806 47.5240172,86.0558842 52.6747511,91.1479783 L52.9991964,91.4635497 L52.9991964,91.4635497 C48.1143838,96.1385907 41.5529743,99 34.3390081,99 C19.239439,99 7,86.4639453 7,71 C7,57.9062088 15.775093,46.9115752 27.631427,43.8488812 C26.5751813,40.9312828 26,37.7828156 26,34.5 C26,19.3121965 38.311237,7 53.4993818,7 Z" id="Combined-Shape" fill="#009BBD"></path>
        <path d="M62,71.5 C62,79.7757881 58.5344267,87.22773 52.9998312,92.434368 C47.4649843,87.2272117 44,79.7755003 44,71.5 C44,63.2244997 47.4649843,55.7727883 52.9989134,50.5661751 C58.5344267,55.77227 62,63.2242119 62,71.5 Z" id="Combined-Shape" fill="#ACEDFB"></path>
        <path d="M71.6597628,43 C74.2613383,43 76.778046,43.3787839 79.1619015,44.0863317 C75.9286856,52.6064224 68.7220743,59.112208 59.8559977,61.2482676 C58.3565325,57.1926938 55.9926483,53.5855962 53.000148,50.6710298 C57.8846676,45.9125058 64.4457966,43 71.6597628,43 Z M34.3390081,43 C41.3926639,43 47.8224434,45.7844994 52.6719592,50.3565414 L53.000148,50.6710298 L53.000148,50.6710298 C50.0656892,53.5287285 47.735847,57.0521973 46.2319933,61.0104489 C37.6981312,58.63683 30.8201408,52.1824166 27.7441992,43.8350489 C29.8573465,43.2892082 32.0657644,43 34.3390081,43 Z" id="Combined-Shape" fill="#ACEDFB"></path>
        <path d="M52.9989134,50.5661751 C56.1046144,53.4870559 58.5587451,57.1148784 60.1148286,61.1985089 C57.9960182,61.7223625 55.7801229,62 53.4993818,62 C50.8914751,62 48.3683889,61.636997 45.9778841,60.9587635 C47.5372451,56.972888 49.9551252,53.4299321 52.9989134,50.5661751 Z" id="Combined-Shape" fill="#ACEDFB"></path>
    </g>
</svg>

<svg viewBox="0 0 106 106" xmlns="http://www.w3.org/2000/svg"><g fill="none" fill-rule="evenodd"><path d="M53.5 7C68.687 7 81 19.312 81 34.5c0 3.377-.609 6.613-1.723 9.602C90.67 47.48 99 58.243 99 71c0 15.464-12.24 28-27.34 28-7.214 0-13.775-2.861-18.66-7.536 5.34-5.11 8.68-12.388 8.68-20.464 0-3.435-.605-6.726-1.71-9.767 8.92-2.15 16.147-8.65 19.307-17.13A26.72 26.72 0 0 0 71.66 43c-7.214 0-13.775 2.861-18.66 7.536a28.09 28.09 0 0 1 6.97 10.697A27.506 27.506 0 0 1 53.5 62c-2.558 0-5.033-.349-7.382-1.002A28.062 28.062 0 0 1 53 50.536l-.336-.315C47.816 45.733 41.39 43 34.34 43c-2.314 0-4.561.294-6.708.849 3.004 8.313 9.9 14.762 18.487 17.15A28.497 28.497 0 0 0 44.321 71c0 7.911 3.203 15.056 8.354 20.148l.324.316C48.114 96.139 41.553 99 34.34 99 19.239 99 7 86.464 7 71c0-13.094 8.775-24.088 20.631-27.151A27.412 27.412 0 0 1 26 34.5C26 19.312 38.311 7 53.5 7z" fill="#009BBD"/><path d="M62 71.5c0 8.276-3.466 15.728-9 20.934-5.535-5.207-9-12.658-9-20.934 0-8.276 3.465-15.727 8.999-20.934C58.534 55.772 62 63.224 62 71.5z" fill="#ACEDFB"/><path d="M71.66 43c2.601 0 5.118.379 7.502 1.086-3.233 8.52-10.44 15.026-19.306 17.162A28.618 28.618 0 0 0 53 50.671C57.885 45.913 64.446 43 71.66 43zm-37.321 0c7.054 0 13.483 2.784 18.333 7.357l.328.314a28.62 28.62 0 0 0-6.768 10.34c-8.534-2.374-15.412-8.829-18.488-17.176A26.33 26.33 0 0 1 34.34 43z" fill="#ACEDFB"/><path d="M52.999 50.566A28.565 28.565 0 0 1 60.115 61.2a27.533 27.533 0 0 1-6.616.801 27.52 27.52 0 0 1-7.521-1.041 28.565 28.565 0 0 1 7.02-10.393z" fill="#ACEDFB"/></g></svg>
